!!!OTL: ICH SINGE MEIN ABENDLIEDCHEN
!!!ARE: Europa, Mitteleuropa, Deutschland, Rheinland, Bonn
!!!SCT: E0639
!!!YEM: Copyright 1995, estate of Helmut Schaffrath.
**kern
*ICvox
*Ivox
*M6/8
*k[f#]
*G:
{16g
16b
=1
8dd
8dd
8dd
4dd
8ee
=2
4.dd
8b
8r
8dd
=3
4cc
8b
4a}
{16g
16b
=4
8dd
8dd
8dd
4dd
8ee
=5
4.dd
8b
8r
8dd
=6
4cc
8b
4a}
{8d
=7
4g
8a
4b
8cc
=8
4.dd
8cc
8r
8dd
=9
8cc
8b
8a
4g}
{8d
=10
4g
8a
4b
8cc
=11
4.dd
8cc
8r
8dd
=12
8cc
8b
8a
4g}
==
!!!AGN: Liebes - Lied
!!!ONB: ESAC (Essen Associative Code) Database: ERK2
!!!AMT: compound duple
!!!AIN: vox
!!!EED: Helmut Schaffrath
!!!EEV: 1.0
*-
